Wikimedia/Chess_tile_kd.svg

<?xml version="1.0" encoding="UTF-8" standalone="no"?>
<svg
   xmlns:dc="http://purl.org/dc/elements/1.1/"
   xmlns:cc="http://creativecommons.org/ns#"
   xmlns:rdf="http://www.w3.org/1999/02/22-rdf-syntax-ns#"
   xmlns:svg="http://www.w3.org/2000/svg"
   xmlns="http://www.w3.org/2000/svg"
   xmlns:sodipodi="http://sodipodi.sourceforge.net/DTD/sodipodi-0.dtd"
   xmlns:inkscape="http://www.inkscape.org/namespaces/inkscape"
   version="1.0"
   width="64"
   height="64"
   viewBox="-5 -10 450 450"
   id="svg2"
   sodipodi:docname="Chess_tile_kd.svg"
   inkscape:version="1.0.2 (e86c870879, 2021-01-15, custom)">
  <metadata
     id="metadata8">
    <rdf:RDF>
      <cc:Work
         rdf:about="">
        <dc:format>image/svg+xml</dc:format>
        <dc:type
           rdf:resource="http://purl.org/dc/dcmitype/StillImage" />
      </cc:Work>
    </rdf:RDF>
  </metadata>
  <sodipodi:namedview
     pagecolor="#ffffff"
     bordercolor="#666666"
     borderopacity="1"
     objecttolerance="10"
     gridtolerance="10"
     guidetolerance="10"
     inkscape:pageopacity="0"
     inkscape:pageshadow="2"
     inkscape:window-width="1513"
     inkscape:window-height="974"
     id="namedview6"
     showgrid="false"
     inkscape:zoom="12.5"
     inkscape:cx="32"
     inkscape:cy="39.594331"
     inkscape:window-x="0"
     inkscape:window-y="0"
     inkscape:window-maximized="0"
     inkscape:current-layer="svg2" />
  <defs
     id="defs4" />
  <g
     transform="matrix(0.95197588,0,0,0.93698988,10.233787,5.0154936)"
     id="layer1">
    <path
       d="m 212.46875,0 -1,21 -32,1 v 14 l 32,1 v 38.875 l -6,3.03125 C 194.24801,84.57107 184.90405,96.105528 179.875,110.5 c -1.93427,5.53639 -2.28327,8.57547 -2.3125,20.5 -0.0398,16.22629 1.34288,23.83367 8.09375,44.8125 2.4456,7.59988 4.27922,14.28734 4.09375,14.84375 -0.18547,0.55642 -3.36614,-2.61406 -7.09375,-7.03125 -25.78382,-30.55376 -64.27783,-54.34232 -98.1875,-60.6875 -32.500719,-6.08154 -63.36239,8.24923 -76.90625,35.6875 -9.8203,19.89477 -10.0777101,38.38062 -0.78125,58.21875 4.6453,9.91282 8.801389,16.20333 23.5625,35.65625 12.18238,16.05454 22.50592,31.58377 30.59375,46 2.93134,5.225 6.146447,10.40001 7.125,11.5 1.4316,1.60929 2.179889,6.34785 3.84375,24.21875 2.58058,27.717 2.58798,28.87171 -0.09375,50.65625 -2.14926,17.45914 -2.177009,17.90949 -0.34375,19.25 33.20598,17.36002 62.79514,26.25155 147.46875,26.1875 84.73674,-0.064 114.00724,-8.70976 147.53125,-26.1875 2.01383,-1.04991 1.83675,-1.79086 -0.3125,-19.25 -2.68173,-21.78454 -2.70557,-22.93925 -0.125,-50.65625 1.66386,-17.8709 2.41215,-22.60945 3.84375,-24.21875 0.97855,-1.1 4.19366,-6.27499 7.125,-11.5 8.08783,-14.41624 18.41137,-29.94546 30.59375,-46 14.76111,-19.45292 18.9172,-25.74343 23.5625,-35.65625 9.29646,-19.83813 9.03905,-38.32397 -0.78125,-58.21875 -13.54386,-27.43828 -44.40553,-41.76904 -76.90625,-35.6875 -33.90967,6.34518 -72.37243,30.13373 -98.15625,60.6875 -3.72761,4.4172 -6.93952,7.58767 -7.125,7.03125 -0.18547,-0.55641 1.6794,-7.24387 4.125,-14.84375 6.75087,-20.97883 8.10227,-28.58621 8.0625,-44.8125 -0.0292,-11.92453 -0.37822,-14.96361 -2.3125,-20.5 -5.01465,-14.35326 -14.54426,-26.157068 -25.375,-31.4375 l -5.75,-2.8125 0.53125,-39.25 31,-1 V 22 l -31,-1 -1,-21 z m 6.5,83.03125 c 9.23559,0 13.44225,1.858402 20.78125,9.15625 10.41002,10.35165 15.07541,25.42705 13.84375,44.8125 -0.96798,15.23542 -3.37237,24.0878 -19.34375,71.625 -8.11016,24.13906 -14.98029,43.875 -15.28125,43.875 -0.98707,0 -29.97985,-87.54621 -32,-96.625 -6.17683,-27.75945 -2.20491,-50.33912 11.21875,-63.6875 7.33901,-7.297847 11.54566,-9.156249 20.78125,-9.15625 z m 0,11.96875 c -5.6047,0 -7.30742,0.451598 -10.875,2.8125 -2.32673,1.53977 -5.57889,4.91477 -7.21875,7.5 -11.8729,18.71767 -8.17756,49.23361 13.3125,109.9375 2.19047,6.1875 4.34571,11.25 4.78125,11.25 1.53533,0 14.34576,-38.23583 19.09375,-57 9.51667,-37.61016 6.73803,-61.78957 -8.21875,-71.6875 -3.56758,-2.3609 -5.2703,-2.812502 -10.875,-2.8125 z m -149.5,34.125 c 11.857809,0.0148 15.453652,0.4138 23.5625,2.59375 26.06895,7.00829 51.6721,22.58409 74.40625,45.28125 13.25675,13.23518 22.83636,26.01871 30.375,40.5 5.70223,10.95366 7.93319,18.37114 13.125,44 l 2.21875,16.5 h 12.375 L 227,261.5 c 5.19181,-25.62887 7.42277,-33.04634 13.125,-44 7.53864,-14.48129 17.11825,-27.26482 30.375,-40.5 22.73415,-22.69716 48.33729,-38.27296 74.40625,-45.28125 8.10885,-2.17995 11.70469,-2.57899 23.5625,-2.59375 12.53638,-0.0156 14.83635,0.26439 22,2.65625 34.03472,11.36384 49.94566,49.35529 34.71875,82.9375 -3.61536,7.9735 -8.23834,14.86298 -22.59375,33.78125 -12.70712,16.74607 -22.28616,31.22862 -32.5,49.1875 -7.17552,12.61665 -11.56973,17.81251 -15.125,17.8125 -1.0206,0 -7.41279,-1.56739 -14.1875,-3.5 -21.65502,-6.1775 -47.88675,-11.16965 -74.8125,-14.1875 -21.67907,-2.42979 -72.32093,-2.42978 -94,0 -26.92575,3.01784 -53.15748,8.01 -74.8125,14.1875 -6.7747,1.93261 -13.166898,3.50001 -14.1875,3.5 -3.55526,0 -7.949477,-5.19584 -15.125,-17.8125 -10.21383,-17.95889 -19.792879,-32.44143 -32.5,-49.1875 -14.35541,-18.91827 -18.94714,-25.80774 -22.5625,-33.78125 -15.2269002,-33.58222 0.652781,-71.57365 34.6875,-82.9375 7.163655,-2.39187 9.463622,-2.67187 22,-2.65625 z m -1.25,7.53125 c -24.19098,0.34301 -43.217897,14.60118 -48.71875,37.9375 -3.13231,13.28823 -1.340771,27.13768 5.375,41.46875 4.33064,9.24137 8.501084,15.42617 26.3125,39.21875 6.29281,8.40597 15.211518,21.39462 19.84375,28.84375 7.652799,12.30654 8.661917,13.50245 10.9375,13.09375 1.3774,-0.24739 8.350001,-2.10892 15.5,-4.125 30.46092,-8.58901 70.83528,-14.56422 98.75,-14.59375 h 10.25 l -0.5,-5.09375 c 0,-13.38393 -7.45306,-37.47602 -16.46875,-53.28125 -21.5612,-37.79847 -70.17749,-75.03539 -107.375,-82.21875 -4.781976,-0.92346 -9.426439,-1.31352 -13.90625,-1.25 z m 300.4375,0 c -17.84577,0.16748 -38.5186,7.76261 -60.78125,22.6875 -25.89755,17.36173 -46.95756,38.90297 -59.4375,60.78125 -8.96976,15.7247 -16.46875,39.89432 -16.46875,53.125 v 4.9375 l 16.75,0.625 c 29.15135,1.09639 57.22355,5.24628 85.75,12.65625 8.25,2.14301 16.125,4.3528 17.5,4.90625 5.63629,2.26869 6.16399,1.81528 14.96875,-12.34375 4.60574,-7.40653 13.55094,-20.34403 19.84375,-28.75 22.99701,-30.71954 28.78593,-40.72306 31.71875,-54.5625 4.07256,-19.21757 -1.5116,-39.70381 -13.90625,-50.90625 -9.87831,-8.92812 -22.05746,-13.28651 -35.9375,-13.15625 z m -149.6875,194.375 c 33.45801,0 54.07273,2.40276 85.59375,9.96875 15.88602,3.81312 43.6953,12.78585 48.3125,15.59375 3.72574,2.26576 4.94504,6.29147 2.96875,9.8125 -2.63231,4.68979 -5.35676,4.73811 -17.46875,0.28125 -23.61883,-8.69103 -50.73183,-15.24277 -77.90625,-18.84375 -18.26291,-2.42009 -64.73709,-2.42009 -83,0 -27.03139,3.58203 -54.28148,10.15203 -77.5625,18.71875 -5.87065,2.16023 -11.425142,3.93751 -12.34375,3.9375 -2.44686,0 -6.593749,-4.52914 -6.59375,-7.21875 0,-5.57975 5.336742,-8.46427 30.21875,-16.21875 36.32209,-11.31976 68.08585,-16.03126 107.78125,-16.03125 z m 0.0625,37.84375 c 33.45801,0 54.10398,2.40277 85.625,9.96875 15.88602,3.81312 43.66404,12.78585 48.28125,15.59375 3.72574,2.26576 4.94504,6.32273 2.96875,9.84375 -2.63231,4.68979 -5.35677,4.73808 -17.46875,0.28125 -23.61883,-8.69103 -50.73184,-15.24276 -77.90625,-18.84375 -18.26291,-2.42009 -64.7371,-2.42008 -83,0 -27.03139,3.58203 -54.28149,10.15203 -77.5625,18.71875 -5.870649,2.16023 -11.425137,3.93749 -12.34375,3.9375 -2.44686,0 -6.593753,-4.56039 -6.59375,-7.25 0,-5.57975 5.336754,-8.43304 30.21875,-16.1875 36.32209,-11.31976 68.08584,-16.06251 107.78125,-16.0625 z"
       transform="translate(0,8.576477)"
       style="fill:#000000"
       id="Rey" />
  </g>
  <path
     style="fill:#ffffff;stroke-width:0.08"
     d="m 12.682131,44.790509 c -0.27474,-0.29021 -0.803212,-1.070127 -1.395857,-2.06 C 9.8420367,40.318248 8.8667114,38.873817 7.0164032,36.406945 5.0048214,33.725059 4.5385209,33.049931 4.1123958,32.20241 2.9172935,29.825469 2.8512115,27.303373 3.9244546,25.029413 4.3898356,24.043376 4.8417818,23.42429 5.6595958,22.652579 6.5044284,21.855372 7.4556175,21.287844 8.6162143,20.888507 L 9.52,20.577534 h 2.04 c 1.986888,0 2.062911,0.006 2.92,0.229095 2.807558,0.730903 5.696927,2.215201 8.2,4.212421 1.094134,0.873018 3.040386,2.780661 3.899038,3.821691 1.518808,1.841405 2.72746,3.960908 3.248616,5.696793 0.356208,1.186475 0.817385,3.308407 0.973676,4.48 0.0675,0.506 0.142676,1.019 0.167056,1.14 l 0.04433,0.22 h 0.862623 0.862622 l 0.100755,-1.14 c 0.115337,-1.305004 0.631189,-3.731408 1.075738,-5.059921 1.293504,-3.865582 5.342435,-8.43758 9.824591,-11.093795 1.717592,-1.01788 3.505811,-1.780199 5.260958,-2.24275 0.86905,-0.22903 1.024114,-0.244468 2.8,-0.27876 1.819528,-0.03514 1.905733,-0.02969 2.68,0.169411 2.250466,0.57869 4.164191,2.122924 5.162576,4.165815 0.647511,1.324935 0.758082,1.835491 0.753658,3.48 -0.0042,1.562407 -0.10346,2.080832 -0.632832,3.305263 -0.440134,1.018022 -0.923754,1.74923 -2.884809,4.361679 -2.106133,2.805717 -3.028653,4.162116 -4.439686,6.527758 -1.121841,1.880803 -1.779536,2.6853 -2.195293,2.6853 -0.128368,0 -0.973696,-0.195184 -1.878505,-0.433743 C 44.664174,43.848017 41.035091,43.194017 37.44,42.854965 c -1.443589,-0.136144 -7.53169,-0.189898 -9.64,-0.08511 -3.761762,0.18696 -7.806694,0.840002 -12.210061,1.971276 -1.105533,0.284024 -2.112573,0.516407 -2.237869,0.516407 -0.173904,0 -0.332423,-0.110505 -0.669939,-0.467025 z m 2.122503,-2.259788 c 5.01072,-1.345172 9.878998,-2.073187 13.863515,-2.073187 h 1.476165 l -0.05172,-0.845283 C 29.92836,36.928034 28.669086,33.581121 26.888937,31.097534 24.151046,27.277747 19.37647,23.619377 15.2,22.14125 10.74099,20.563128 6.7907384,21.806059 5.1997721,25.287783 4.7944753,26.174748 4.665075,26.779384 4.6215532,27.989568 c -0.058322,1.621723 0.1697204,2.617763 0.9771464,4.267966 0.5410418,1.105772 0.9498611,1.714788 2.9515656,4.396933 0.8853542,1.186314 2.1615348,2.986314 2.8359568,4 1.281981,1.926878 1.558652,2.283067 1.773379,2.283067 0.07132,0 0.811581,-0.183065 1.645033,-0.406813 z m 36.010072,0.146813 c 0.135351,-0.143 0.686869,-0.926 1.225597,-1.74 1.146514,-1.732343 1.123994,-1.700575 3.005639,-4.24 3.10019,-4.183943 3.7232,-5.38245 3.950649,-7.6 0.225265,-2.196255 -0.552127,-4.536869 -1.928085,-5.805183 C 54.540856,20.962445 50.693594,20.85578 46.4,22.996569 c -2.555454,1.274151 -5.017109,3.069753 -7.205954,5.25623 -2.493184,2.490484 -3.872367,4.658014 -4.864287,7.644735 C 33.80996,37.462675 33.56,38.682461 33.56,39.653897 v 0.70824 l 0.82,0.04493 c 0.451,0.02471 1.558,0.08346 2.46,0.130543 2.724818,0.14224 5.158203,0.453872 7.88,1.009156 1.428933,0.291522 4.494392,1.058357 5.04,1.260774 0.525402,0.19492 0.776447,0.163975 1.054706,-0.130009 z"
     id="path10"
     transform="matrix(7.03125,0,0,7.03125,-5,-10)" />
  <path
     style="fill:#ffffff;stroke-width:0.08"
     d="m 31.696587,36.537534 c -0.335024,-0.782895 -2.823516,-8.141613 -3.721704,-11.005446 -0.66446,-2.118604 -0.770842,-2.762331 -0.772518,-4.674554 -0.0013,-1.453725 0.01339,-1.612881 0.215236,-2.336243 0.251092,-0.899839 0.615258,-1.660596 1.127732,-2.355872 0.39015,-0.529319 1.162832,-1.216969 1.642319,-1.461585 0.471314,-0.240447 1.22584,-0.354758 1.987038,-0.30104 1.004399,0.07088 1.548226,0.348692 2.423948,1.238257 0.94965,0.964661 1.501647,2.068627 1.768287,3.536483 0.121086,0.666583 0.118975,2.482812 -0.0039,3.36 -0.22481,1.604811 -1.053558,4.312802 -3.21952,10.52 -0.61414,1.76 -1.163976,3.326 -1.221856,3.48 l -0.105236,0.28 -0.119821,-0.28 z m 0.490519,-3.726639 c 0.352162,-0.834531 1.591624,-4.566257 2.003931,-6.033361 1.140016,-4.056495 1.28356,-7.167448 0.414716,-8.987945 -0.312351,-0.654473 -0.901294,-1.306746 -1.458604,-1.61545 C 32.743367,15.950478 32.669672,15.937534 31.8,15.937534 c -0.851507,0 -0.946885,0.01581 -1.281121,0.212309 -0.829255,0.487531 -1.56348,1.559057 -1.882756,2.747691 -0.177236,0.659832 -0.23937,2.451317 -0.120764,3.481963 0.221038,1.920743 0.829204,4.3221 1.924271,7.598037 0.799303,2.391143 1.256416,3.541319 1.389758,3.496871 0.04975,-0.01658 0.210719,-0.315162 0.357718,-0.66351 z"
     id="path12"
     transform="matrix(7.03125,0,0,7.03125,-5,-10)" />
  <path
     style="fill:#ffffff;stroke-width:0.08"
     d="m 13.612642,52.354699 c -0.401865,-0.352842 -0.509841,-0.662564 -0.348752,-1.000371 0.230424,-0.483204 1.138215,-0.899455 3.65611,-1.676442 5.781068,-1.783956 10.486293,-2.394043 16.96,-2.19906 3.206795,0.09659 5.38115,0.370255 8.565787,1.078112 2.23811,0.497469 5.870015,1.57747 7.034213,2.091727 0.98717,0.436059 1.206818,1.037065 0.616058,1.685666 -0.275994,0.303015 -0.683651,0.238938 -2.637971,-0.414649 C 45.371452,51.221844 43.787038,50.779997 41.961048,50.386716 40.386687,50.04763 38.242562,49.680698 37.08,49.551402 c -2.146421,-0.238716 -8.857814,-0.213018 -10.84,0.04151 -3.526886,0.452873 -6.744978,1.203147 -10.286039,2.398111 -0.983293,0.331821 -1.850938,0.603312 -1.9281,0.603312 -0.07716,0 -0.26311,-0.107835 -0.413219,-0.239632 z"
     id="path14"
     transform="matrix(7.03125,0,0,7.03125,-5,-10)" />
  <path
     style="fill:#ffffff;stroke-width:0.08"
     d="m 13.643265,57.424801 c -0.703133,-0.591647 -0.556287,-1.187537 0.413784,-1.67911 0.990556,-0.501952 4.812596,-1.660255 7.190992,-2.179293 2.354837,-0.513897 4.315937,-0.795323 6.791959,-0.974676 1.503298,-0.108893 6.258901,-0.106512 7.8,0.0039 3.867178,0.277075 8.126349,1.183476 12.382335,2.635106 1.444428,0.492664 1.895625,0.715947 2.077665,1.028168 0.22596,0.38755 0.167424,0.707705 -0.203942,1.115431 -0.277659,0.304843 -0.691368,0.240254 -2.643789,-0.412757 -4.011583,-1.341722 -8.111532,-2.2159 -11.461395,-2.443763 -1.54698,-0.105228 -6.861206,-0.10519 -8.350874,5.9e-5 -3.313232,0.23409 -7.437814,1.114872 -11.432917,2.441436 -1.118104,0.371264 -2.096342,0.675025 -2.173862,0.675025 -0.07752,0 -0.253,-0.09429 -0.389956,-0.20953 z"
     id="path16"
     transform="matrix(7.03125,0,0,7.03125,-5,-10)" />
</svg>

<?xml version="1.0" encoding="UTF-8" standalone="no"?>
<!-- Created with Inkscape (http://www.inkscape.org/) -->
<svg xmlns:svg="http://www.w3.org/2000/svg" xmlns="http://www.w3.org/2000/svg" version="1.0" width="64" height="64" viewBox="-5 -10 450 450" id="svg2">
  <defs id="defs4"/>
  <g transform="translate(0,-8.576477)" id="layer1">
    <path d="M 212.46875,0 L 211.46875,21 L 179.46875,22 L 179.46875,36 L 211.46875,37 L 211.46875,75.875 L 205.46875,78.90625 C 194.24801,84.57107 184.90405,96.105528 179.875,110.5 C 177.94073,116.03639 177.59173,119.07547 177.5625,131 C 177.52272,147.22629 178.90538,154.83367 185.65625,175.8125 C 188.10185,183.41238 189.93547,190.09984 189.75,190.65625 C 189.56453,191.21267 186.38386,188.04219 182.65625,183.625 C 156.87243,153.07124 118.37842,129.28268 84.46875,122.9375 C 51.968031,116.85596 21.10636,131.18673 7.5625,158.625 C -2.2578,178.51977 -2.5152101,197.00562 6.78125,216.84375 C 11.42655,226.75657 15.582639,233.04708 30.34375,252.5 C 42.52613,268.55454 52.84967,284.08377 60.9375,298.5 C 63.86884,303.725 67.083947,308.90001 68.0625,310 C 69.4941,311.60929 70.242389,316.34785 71.90625,334.21875 C 74.48683,361.93575 74.49423,363.09046 71.8125,384.875 C 69.66324,402.33414 69.635491,402.78449 71.46875,404.125 C 104.67473,421.48502 134.26389,430.37655 218.9375,430.3125 C 303.67424,430.24846 332.94474,421.60274 366.46875,404.125 C 368.48258,403.07509 368.3055,402.33414 366.15625,384.875 C 363.47452,363.09046 363.45068,361.93575 366.03125,334.21875 C 367.69511,316.34785 368.4434,311.6093 369.875,310 C 370.85355,308.9 374.06866,303.72501 377,298.5 C 385.08783,284.08376 395.41137,268.55454 407.59375,252.5 C 422.35486,233.04708 426.51095,226.75657 431.15625,216.84375 C 440.45271,197.00562 440.1953,178.51978 430.375,158.625 C 416.83114,131.18672 385.96947,116.85596 353.46875,122.9375 C 319.55908,129.28268 281.09632,153.07123 255.3125,183.625 C 251.58489,188.0422 248.37298,191.21267 248.1875,190.65625 C 248.00203,190.09984 249.8669,183.41238 252.3125,175.8125 C 259.06337,154.83367 260.41477,147.22629 260.375,131 C 260.34577,119.07547 259.99678,116.03639 258.0625,110.5 C 253.04785,96.14674 243.51824,84.342932 232.6875,79.0625 L 226.9375,76.25 L 227.46875,37 L 258.46875,36 L 258.46875,22 L 227.46875,21 L 226.46875,0 L 212.46875,0 z M 218.96875,83.03125 C 228.20434,83.03125 232.411,84.889652 239.75,92.1875 C 250.16002,102.53915 254.82541,117.61455 253.59375,137 C 252.62577,152.23542 250.22138,161.0878 234.25,208.625 C 226.13984,232.76406 219.26971,252.5 218.96875,252.5 C 217.98168,252.5 188.9889,164.95379 186.96875,155.875 C 180.79192,128.11555 184.76384,105.53588 198.1875,92.1875 C 205.52651,84.889653 209.73316,83.031251 218.96875,83.03125 z M 218.96875,95 C 213.36405,95 211.66133,95.451598 208.09375,97.8125 C 205.76702,99.35227 202.51486,102.72727 200.875,105.3125 C 189.0021,124.03017 192.69744,154.54611 214.1875,215.25 C 216.37797,221.4375 218.53321,226.5 218.96875,226.5 C 220.50408,226.5 233.31451,188.26417 238.0625,169.5 C 247.57917,131.88984 244.80053,107.71043 229.84375,97.8125 C 226.27617,95.4516 224.57345,94.999998 218.96875,95 z M 69.46875,129.125 C 81.326559,129.13976 84.922402,129.5388 93.03125,131.71875 C 119.1002,138.72704 144.70335,154.30284 167.4375,177 C 180.69425,190.23518 190.27386,203.01871 197.8125,217.5 C 203.51473,228.45366 205.74569,235.87114 210.9375,261.5 L 213.15625,278 L 225.53125,278 L 227,261.5 C 232.19181,235.87113 234.42277,228.45366 240.125,217.5 C 247.66364,203.01871 257.24325,190.23518 270.5,177 C 293.23415,154.30284 318.83729,138.72704 344.90625,131.71875 C 353.0151,129.5388 356.61094,129.13976 368.46875,129.125 C 381.00513,129.10938 383.3051,129.38939 390.46875,131.78125 C 424.50347,143.14509 440.41441,181.13654 425.1875,214.71875 C 421.57214,222.69225 416.94916,229.58173 402.59375,248.5 C 389.88663,265.24607 380.30759,279.72862 370.09375,297.6875 C 362.91823,310.30415 358.52402,315.50001 354.96875,315.5 C 353.94815,315.5 347.55596,313.93261 340.78125,312 C 319.12623,305.8225 292.8945,300.83035 265.96875,297.8125 C 244.28968,295.38271 193.64782,295.38272 171.96875,297.8125 C 145.043,300.83034 118.81127,305.8225 97.15625,312 C 90.38155,313.93261 83.989352,315.50001 82.96875,315.5 C 79.41349,315.5 75.019273,310.30416 67.84375,297.6875 C 57.62992,279.72861 48.050871,265.24607 35.34375,248.5 C 20.98834,229.58173 16.39661,222.69226 12.78125,214.71875 C -2.4456502,181.13653 13.434031,143.1451 47.46875,131.78125 C 54.632405,129.38938 56.932372,129.10938 69.46875,129.125 z M 68.21875,136.65625 C 44.02777,136.99926 25.000853,151.25743 19.5,174.59375 C 16.36769,187.88198 18.159229,201.73143 24.875,216.0625 C 29.20564,225.30387 33.376084,231.48867 51.1875,255.28125 C 57.48031,263.68722 66.399018,276.67587 71.03125,284.125 C 78.684049,296.43154 79.693167,297.62745 81.96875,297.21875 C 83.34615,296.97136 90.318751,295.10983 97.46875,293.09375 C 127.92967,284.50474 168.30403,278.52953 196.21875,278.5 L 206.46875,278.5 L 205.96875,273.40625 C 205.96875,260.02232 198.51569,235.93023 189.5,220.125 C 167.9388,182.32653 119.32251,145.08961 82.125,137.90625 C 77.343024,136.98279 72.698561,136.59273 68.21875,136.65625 z M 368.65625,136.65625 C 350.81048,136.82373 330.13765,144.41886 307.875,159.34375 C 281.97745,176.70548 260.91744,198.24672 248.4375,220.125 C 239.46774,235.8497 231.96875,260.01932 231.96875,273.25 L 231.96875,278.1875 L 248.71875,278.8125 C 277.8701,279.90889 305.9423,284.05878 334.46875,291.46875 C 342.71875,293.61176 350.59375,295.82155 351.96875,296.375 C 357.60504,298.64369 358.13274,298.19028 366.9375,284.03125 C 371.54324,276.62472 380.48844,263.68722 386.78125,255.28125 C 409.77826,224.56171 415.56718,214.55819 418.5,200.71875 C 422.57256,181.50118 416.9884,161.01494 404.59375,149.8125 C 394.71544,140.88438 382.53629,136.52599 368.65625,136.65625 z M 218.96875,331.03125 C 252.42676,331.03125 273.04148,333.43401 304.5625,341 C 320.44852,344.81312 348.2578,353.78585 352.875,356.59375 C 356.60074,358.85951 357.82004,362.88522 355.84375,366.40625 C 353.21144,371.09604 350.48699,371.14436 338.375,366.6875 C 314.75617,357.99647 287.64317,351.44473 260.46875,347.84375 C 242.20584,345.42366 195.73166,345.42366 177.46875,347.84375 C 150.43736,351.42578 123.18727,357.99578 99.90625,366.5625 C 94.0356,368.72273 88.481108,370.50001 87.5625,370.5 C 85.11564,370.5 80.968751,365.97086 80.96875,363.28125 C 80.96875,357.7015 86.305492,354.81698 111.1875,347.0625 C 147.50959,335.74274 179.27335,331.03124 218.96875,331.03125 z M 219.03125,368.875 C 252.48926,368.875 273.13523,371.27777 304.65625,378.84375 C 320.54227,382.65687 348.32029,391.6296 352.9375,394.4375 C 356.66324,396.70326 357.88254,400.76023 355.90625,404.28125 C 353.27394,408.97104 350.54948,409.01933 338.4375,404.5625 C 314.81867,395.87147 287.70566,389.31974 260.53125,385.71875 C 242.26834,383.29866 195.79415,383.29867 177.53125,385.71875 C 150.49986,389.30078 123.24976,395.87078 99.96875,404.4375 C 94.098101,406.59773 88.543613,408.37499 87.625,408.375 C 85.17814,408.375 81.031247,403.81461 81.03125,401.125 C 81.03125,395.54525 86.368004,392.69196 111.25,384.9375 C 147.57209,373.61774 179.33584,368.87499 219.03125,368.875 z " transform="translate(0,8.576477)" style="fill:#000000" id="Rey"/>
  </g>
</svg>
